icons/filled/feather.svg

<svg xmlns="http://www.w3.org/2000/svg" width="24" height="24" viewBox="0 0 24 24" fill="currentColor"><path d="M8 9.585v6.415h6.414l-2.707 2.707a1 1 0 0 1 -.112 .097l-.11 .071l-.114 .054l-.105 .035l-.149 .03l-.117 .006h-4.586l-1.707 1.707a1 1 0 1 1 -1.414 -1.414l1.707 -1.709v-4.584l.003 -.075l.017 -.126l.03 -.111l.044 -.111l.052 -.098l.067 -.096l.08 -.09z"/><path d="M19.414 11l-3 3h-4.914l2.914 -3z"/><path d="M13 4.586v4.998l-3 3v-4.999z"/><path d="M16.482 3a4.515 4.515 0 0 1 4.518 4.514a4.7 4.7 0 0 1 -.239 1.487l-5.761 -.001v-5.76c.469 -.158 .968 -.24 1.482 -.24"/></svg>

<svg xmlns="http://www.w3.org/2000/svg" width="24" height="24" fill="currentColor"><path d="M8 9.585V16h6.414l-2.707 2.707a1 1 0 0 1-.112.097l-.11.071-.114.054-.105.035-.149.03L11 19H6.414l-1.707 1.707a1 1 0 1 1-1.414-1.414L5 17.584V13l.003-.075.017-.126.03-.111.044-.111.052-.098.067-.096.08-.09z"/><path d="m19.414 11-3 3H11.5l2.914-3zM13 4.586v4.998l-3 3V7.585zM16.482 3A4.515 4.515 0 0 1 21 7.514a4.7 4.7 0 0 1-.239 1.487L15 9V3.24c.469-.158.968-.24 1.482-.24"/></svg>
